public/svg/white/auto.svg

<svg xmlns="http://www.w3.org/2000/svg" width="32" height="32" viewBox="0 0 32 32"><path fill="#FFF" fill-rule="evenodd" d="M16,32 C7.163444,32 0,24.836556 0,16 C0,7.163444 7.163444,0 16,0 C24.836556,0 32,7.163444 32,16 C32,24.836556 24.836556,32 16,32 Z M24.5,19.2673835 L24.5,11.0666667 L16,6 L7.5,11.0666667 L7.5,21.0222222 L16,26 L23.0151183,21.8918 L15.4769231,17.4222222 L16.8418761,16.6666667 L16.8418761,8.76704233 L22.5820513,12.1886369 L22.5820513,15.8222222 L20.7948718,14.767492 L20.3153846,16.7555556 L24.5,19.2673835 Z M9.41794872,12.1886369 L14.9358072,8.89956049 L14.9358072,15.4666667 L9.41794872,18.6666667 L9.41794872,12.1886369 Z M13.5153846,18.5333333 L19.1746935,21.8856712 L16,23.7448381 L10.3770677,20.4519313 L13.5153846,18.5333333 Z"/></svg>

<svg xmlns="http://www.w3.org/2000/svg" width="32" height="32" viewBox="0 0 32 32"><path fill="#FFF" fill-rule="evenodd" d="M16 32C7.163 32 0 24.837 0 16S7.163 0 16 0s16 7.163 16 16-7.163 16-16 16zm8.5-12.733v-8.2L16 6l-8.5 5.067v9.955L16 26l7.015-4.108-7.538-4.47 1.365-.755v-7.9l5.74 3.422v3.633l-1.787-1.055-.48 1.989 4.185 2.511zM9.418 12.19l5.518-3.29v6.568l-5.518 3.2V12.19zm4.097 6.344l5.66 3.353L16 23.745l-5.623-3.293 3.138-1.919z"/></svg>
